app/assets/images/heroicons/micro/bars-arrow-up.svg

<svg width="16" height="16" viewBox="0 0 16 16" fill="none" xmlns="http://www.w3.org/2000/svg">
<path fill-rule="evenodd" clip-rule="evenodd" d="M2 2.75C2 2.33579 2.33579 2 2.75 2H12.25C12.6642 2 13 2.33579 13 2.75C13 3.16421 12.6642 3.5 12.25 3.5H2.75C2.33579 3.5 2 3.16421 2 2.75Z" fill="#0F172A"/>
<path fill-rule="evenodd" clip-rule="evenodd" d="M2 6.25C2 5.83579 2.33579 5.5 2.75 5.5H8.25C8.66421 5.5 9 5.83579 9 6.25C9 6.66421 8.66421 7 8.25 7H2.75C2.33579 7 2 6.66421 2 6.25ZM2 9.75C2 9.33579 2.33579 9 2.75 9H6.25C6.66421 9 7 9.33579 7 9.75C7 10.1642 6.66421 10.5 6.25 10.5H2.75C2.33579 10.5 2 10.1642 2 9.75Z" fill="#0F172A"/>
<path fill-rule="evenodd" clip-rule="evenodd" d="M9.21967 9.53033C8.92678 9.23744 8.92678 8.76256 9.21967 8.46967L11.4697 6.21967C11.7626 5.92678 12.2374 5.92678 12.5303 6.21967L14.7803 8.46967C15.0732 8.76256 15.0732 9.23744 14.7803 9.53033C14.4874 9.82322 14.0126 9.82322 13.7197 9.53033L12.75 8.56066V14.25C12.75 14.6642 12.4142 15 12 15C11.5858 15 11.25 14.6642 11.25 14.25V8.56066L10.2803 9.53033C9.98744 9.82322 9.51256 9.82322 9.21967 9.53033Z" fill="#0F172A"/>
</svg>

<svg xmlns="http://www.w3.org/2000/svg" viewBox="0 0 16 16" fill="currentColor" aria-hidden="true" data-slot="icon">
  <path fill-rule="evenodd" d="M2 2.75A.75.75 0 0 1 2.75 2h9.5a.75.75 0 0 1 0 1.5h-9.5A.75.75 0 0 1 2 2.75ZM2 6.25a.75.75 0 0 1 .75-.75h5.5a.75.75 0 0 1 0 1.5h-5.5A.75.75 0 0 1 2 6.25Zm0 3.5A.75.75 0 0 1 2.75 9h3.5a.75.75 0 0 1 0 1.5h-3.5A.75.75 0 0 1 2 9.75ZM9.22 9.53a.75.75 0 0 1 0-1.06l2.25-2.25a.75.75 0 0 1 1.06 0l2.25 2.25a.75.75 0 0 1-1.06 1.06l-.97-.97v5.69a.75.75 0 0 1-1.5 0V8.56l-.97.97a.75.75 0 0 1-1.06 0Z" clip-rule="evenodd"/>
</svg>
